ExpEYES17/UserManual/schematics/lemon-cell.svg

<?xml version="1.0" encoding="UTF-8" standalone="no"?>
<svg
   xmlns:dc="http://purl.org/dc/elements/1.1/"
   xmlns:cc="http://creativecommons.org/ns#"
   xmlns:rdf="http://www.w3.org/1999/02/22-rdf-syntax-ns#"
   xmlns:svg="http://www.w3.org/2000/svg"
   xmlns="http://www.w3.org/2000/svg"
   xmlns:sodipodi="http://sodipodi.sourceforge.net/DTD/sodipodi-0.dtd"
   xmlns:inkscape="http://www.inkscape.org/namespaces/inkscape"
   version="1.1"
   id="lemon-cell"
   width="100%"
   height="100%"
   viewBox="-6 -6 566 406"
   sodipodi:docname="lemon-cell.svg"
   inkscape:export-filename="/home/georgesk/developpement/expeyes/expeyes/ExpEYES17/UserManual/fr/rst/exp/schematics/lemon-cell.png"
   inkscape:export-xdpi="51.245552"
   inkscape:export-ydpi="51.245552"
   inkscape:version="0.92.3 (2405546, 2018-03-11)">
  <metadata
     id="metadata73">
    <rdf:RDF>
      <cc:Work
         rdf:about="">
        <dc:format>image/svg+xml</dc:format>
        <dc:type
           rdf:resource="http://purl.org/dc/dcmitype/StillImage" />
        <dc:title />
      </cc:Work>
    </rdf:RDF>
  </metadata>
  <defs
     id="defs71" />
  <sodipodi:namedview
     pagecolor="#ffffff"
     bordercolor="#666666"
     borderopacity="1"
     objecttolerance="10"
     gridtolerance="10"
     guidetolerance="10"
     inkscape:pageopacity="0"
     inkscape:pageshadow="2"
     inkscape:window-width="1668"
     inkscape:window-height="1013"
     id="namedview69"
     showgrid="false"
     inkscape:zoom="1.8904594"
     inkscape:cx="283"
     inkscape:cy="203"
     inkscape:window-x="0"
     inkscape:window-y="0"
     inkscape:window-maximized="1"
     inkscape:current-layer="lemon-cell" />
  <desc
     id="desc2">
XCircuit Version 3.7
File &quot;lemon-cell.ps&quot; Page 1
</desc>
  <circle
     style="fill:none;stroke:#000000;stroke-width:2;stroke-linecap:round;stroke-linejoin:bevel"
     r="90"
     id="ellipse4"
     cy="288"
     cx="272" />
  <path
     style="fill:#ffffff;stroke:#000000;stroke-width:2;stroke-linecap:round;stroke-linejoin:bevel"
     inkscape:connector-curvature="0"
     id="path6"
     d="m 224,160 v 96 h 16 v -96 z" />
  <path
     style="fill:#ffffff;stroke:#000000;stroke-width:2;stroke-linecap:round;stroke-linejoin:bevel"
     inkscape:connector-curvature="0"
     id="path8"
     d="m 288,160 v 96 h 16 v -96 z" />
  <path
     style="fill:none;stroke:#000000;stroke-width:2;stroke-linecap:round;stroke-linejoin:bevel"
     inkscape:connector-curvature="0"
     id="path10"
     d="M 16,16 V 80 H 128 V 16 Z" />
  <text
     font-size="40"
     id="text14"
     style="font-size:40px;font-family:Helvetica;fill:#000000;stroke:none"
     x="32"
     y="64">
    <tspan
       x="32"
       y="64"
       id="tspan12">GND</tspan>
  </text>
  <text
     font-size="40"
     id="text20"
     style="font-size:40px;font-family:Helvetica;fill:#000000;stroke:none"
     x="480"
     y="160">
    <tspan
       x="480"
       y="160"
       id="tspan18">A1</tspan>
  </text>
  <path
     style="fill:none;stroke:#000000;stroke-width:2;stroke-linecap:round;stroke-linejoin:bevel"
     inkscape:connector-curvature="0"
     id="path24"
     d="m 464,128 v 48 h 80 v -48 z" />
  <text
     font-size="40"
     id="text28"
     style="font-size:40px;font-family:Helvetica;fill:#000000;stroke:none"
     x="171.13002"
     y="197.41109">
    <tspan
       x="171.13002"
       y="197.41109"
       id="tspan26">Zn</tspan>
  </text>
  <text
     font-size="40"
     id="text34"
     style="font-size:40px;font-family:Helvetica;fill:#000000;stroke:none"
     x="212.28107"
     y="309.71893">
    <tspan
       x="212.28107"
       y="309.71893"
       id="tspan32">Lemon</tspan>
  </text>
  <path
     style="fill:none;stroke:#000000;stroke-width:2;stroke-linecap:round;stroke-linejoin:bevel"
     inkscape:connector-curvature="0"
     id="path38"
     d="M 368,32 H 340" />
  <path
     style="fill:none;stroke:#000000;stroke-width:2;stroke-linecap:round;stroke-linejoin:bevel"
     inkscape:connector-curvature="0"
     id="path40"
     d="m 240,32 h 28" />
  <path
     style="fill:none;stroke:#000000;stroke-width:2;stroke-linecap:round;stroke-linejoin:bevel"
     inkscape:connector-curvature="0"
     id="path42"
     d="m 268,32 6,14 12,-28 12,28 12,-28 12,28 12,-28 6,14" />
  <text
     font-size="40"
     id="text46"
     style="font-size:40px;font-family:Helvetica;fill:#000000;stroke:none"
     x="258.78012"
     y="91.904396">
    <tspan
       x="258.78012"
       y="91.904396"
       id="tspan44">1 kΩ</tspan>
  </text>
  <text
     font-size="40"
     id="text52"
     style="font-size:40px;font-family:Helvetica;fill:#000000;stroke:none"
     x="309.4111"
     y="196.69109">
    <tspan
       x="309.4111"
       y="196.69109"
       id="tspan50">Cu</tspan>
  </text>
  <path
     style="fill:none;stroke:#000000;stroke-width:2;stroke-linecap:round;stroke-linejoin:bevel"
     inkscape:connector-curvature="0"
     id="path56"
     d="M 224,160 C 216.00478,112.03728 205.0239,88.816444 128,48"
     sodipodi:nodetypes="cc" />
  <path
     style="fill:none;stroke:#000000;stroke-width:2;stroke-linecap:round;stroke-linejoin:bevel"
     inkscape:connector-curvature="0"
     id="path58"
     d="M 240,32 C 208.92352,30.917782 150.45349,39.58232 128,48"
     sodipodi:nodetypes="cc" />
  <path
     style="fill:none;stroke:#000000;stroke-width:2;stroke-linecap:round;stroke-linejoin:bevel"
     inkscape:connector-curvature="0"
     id="path60"
     d="m 304,160 c 14.37667,-30.84321 97.47419,3.09751 160,-16"
     sodipodi:nodetypes="cc" />
  <path
     style="fill:none;stroke:#000000;stroke-width:2;stroke-linecap:round;stroke-linejoin:bevel"
     inkscape:connector-curvature="0"
     id="path62"
     d="m 368,32 c 34.39771,1.623327 80,75.7457 96,112"
     sodipodi:nodetypes="cc" />
  <path
     style="fill:none;stroke:#000000;stroke-width:2;stroke-linecap:round;stroke-linejoin:bevel"
     inkscape:connector-curvature="0"
     id="path64"
     d="M 0,0 V 400 H 560 V 0 Z" />
</svg>

<svg xmlns="http://www.w3.org/2000/svg"
   xmlns:xlink="http://www.w3.org/1999/xlink"
   version="1.1"
   id="lemon-cell" width="100%" height="100%"  viewBox="-6 -6 566 406">
<desc>
XCircuit Version 3.7
File "lemon-cell.ps" Page 1
</desc>
<g stroke="black">
<ellipse cx="272" cy="288" rx="90" ry="90" fill="none" stroke-width="2" stroke-linejoin="bevel" stroke-linecap="round" stroke="#000000" />
<path d="M224,160 L224,256 240,256 240,160 z" fill="none" stroke-width="2" stroke-linejoin="bevel" stroke-linecap="round" stroke="#000000" />
<path d="M288,160 L288,256 304,256 304,160 z" fill="none" stroke-width="2" stroke-linejoin="bevel" stroke-linecap="round" stroke="#000000" />
<path d="M16,16 L16,80 128,80 128,16 z" fill="none" stroke-width="2" stroke-linejoin="bevel" stroke-linecap="round" stroke="#000000" />
<g transform="matrix(   1    0   -0    1  32  64)" fill="#000000" >
<text stroke="none" font-family="Helvetica" font-size="40" ><tspan x="0" y="0">GND</tspan>
</text></g>
<g transform="matrix(   1    0   -0    1 480 160)" fill="#000000" >
<text stroke="none" font-family="Helvetica" font-size="40" ><tspan x="0" y="0">A1</tspan>
</text></g>
<path d="M464,128 L464,176 544,176 544,128 z" fill="none" stroke-width="2" stroke-linejoin="bevel" stroke-linecap="round" stroke="#000000" />
<g transform="matrix(   1    0   -0    1 176 192)" fill="#000000" >
<text stroke="none" font-family="Helvetica" font-size="40" ><tspan x="0" y="0">Zn</tspan>
</text></g>
<g transform="matrix(   1    0   -0    1 208 320)" fill="#000000" >
<text stroke="none" font-family="Helvetica" font-size="40" ><tspan x="0" y="0">LEMON</tspan>
</text></g>
<path d="M368,32 L340,32 " fill="none" stroke-width="2" stroke-linejoin="bevel" stroke-linecap="round" stroke="#000000" />
<path d="M240,32 L268,32 " fill="none" stroke-width="2" stroke-linejoin="bevel" stroke-linecap="round" stroke="#000000" />
<path d="M268,32 L274,46 286,18 298,46 310,18 322,46 334,18 340,32 " fill="none" stroke-width="2" stroke-linejoin="bevel" stroke-linecap="round" stroke="#000000" />
<g transform="matrix(   1    0   -0    1 288  80)" fill="#000000" >
<text stroke="none" font-family="Helvetica" font-size="40" ><tspan x="0" y="0">1K</tspan>
</text></g>
<g transform="matrix(   1    0   -0    1 304 192)" fill="#000000" >
<text stroke="none" font-family="Helvetica" font-size="40" ><tspan x="0" y="0">Cu</tspan>
</text></g>
<path d="M224,160 C160,128 208,32 128,48 " fill="none" stroke-width="2" stroke-linejoin="bevel" stroke-linecap="round" stroke="#000000" />
<path d="M240,32 C256,32 112,48 128,48 " fill="none" stroke-width="2" stroke-linejoin="bevel" stroke-linecap="round" stroke="#000000" />
<path d="M304,160 C320,160 336,96 464,144 " fill="none" stroke-width="2" stroke-linejoin="bevel" stroke-linecap="round" stroke="#000000" />
<path d="M368,32 C384,32 448,144 464,144 " fill="none" stroke-width="2" stroke-linejoin="bevel" stroke-linecap="round" stroke="#000000" />
<path d="M0,0 L0,400 560,400 560,0 z" fill="none" stroke-width="2" stroke-linejoin="bevel" stroke-linecap="round" stroke="#000000" />
</g>
</svg>
